src/assets/icons/numbers,fancy,04.svg

<svg width="48" height="48" viewBox="0 0 48 48" fill="none" xmlns="http://www.w3.org/2000/svg">
<path d="M12.3629 33.8864H26.326V39H32.2067V33.8864H35.8146V28.9574H32.2067V9.90909H24.5078L12.3629 29.0426V33.8864ZM26.4396 28.9574H18.5561V28.7301L26.2124 16.6136H26.4396V28.9574Z" fill="black"/>
</svg>

<svg xmlns="http://www.w3.org/2000/svg" width="48" height="48" fill="none" viewBox="0 0 48 48">
  <path fill="#000" d="M12.363 33.886h13.963V39h5.88v-5.114h3.609v-4.929h-3.608V9.91h-7.7L12.364 29.043v4.843zm14.077-4.929h-7.884v-.227l7.656-12.116h.228v12.343z"/>
</svg>
